icon/fa/tent-arrow-turn-left.svg

<svg xmlns="http://www.w3.org/2000/svg" viewBox="0 0 576 512"><!--! Font Awesome Free 6.1.2 by @fontawesome - https://fontawesome.com License - https://fontawesome.com/license/free (Icons: CC BY 4.0, Fonts: SIL OFL 1.1, Code: MIT License) Copyright 2022 Fonticons, Inc.--><path d="M86.54 72H456c66.3 0 120 53.7 120 120v40c0 13.3-10.7 24-24 24s-24-10.7-24-24v-40c0-39.8-32.2-72-72-72H86.54l33.56 30.2c9.8 8.8 10.6 24 1.7 33.9-9.7 9.8-24 10.6-33.86 1.7l-79.995-72C2.888 109.3 0 102.8 0 96c0-6.8 2.888-13.29 7.945-17.84L87.94 6.161c9.86-8.867 24.16-8.068 33.86 1.784 8.9 9.855 8.1 25.025-1.7 33.895L86.54 72zM475.4 294.5c6.6 5.1 11 12.5 12.2 20.8l24 160c1.4 9.2-1.3 18.5-7.4 25.6-6 7-14.9 11.1-24.2 11.1h-96l-96.9-160v160H96c-9.32 0-18.17-4.1-24.25-11.1-6.08-7.1-8.78-16.4-7.4-25.6l24-160c1.24-8.3 5.63-15.7 12.25-20.8l168-128c11.5-8.7 27.3-8.7 38.8 0l168 128z"/></svg>

<svg xmlns="http://www.w3.org/2000/svg" viewBox="0 0 576 512" height="1em" width="1em">
<!--! Font Awesome Free 6.1.2 by @fontawesome - https://fontawesome.com License - https://fontawesome.com/license/free (Icons: CC BY 4.0, Fonts: SIL OFL 1.1, Code: MIT License) Copyright 2022 Fonticons, Inc.-->
  <path d="M86.54 72H456C522.3 72 576 125.7 576 192V232C576 245.3 565.3 256 552 256C538.7 256 528 245.3 528 232V192C528 152.2 495.8 120 456 120H86.54L120.1 150.2C129.9 159 130.7 174.2 121.8 184.1C112.1 193.9 97.8 194.7 87.94 185.8L7.945 113.8C2.888 109.3 0 102.8 0 96C0 89.2 2.888 82.71 7.945 78.16L87.94 6.161C97.8-2.706 112.1-1.907 121.8 7.945C130.7 17.8 129.9 32.97 120.1 41.84L86.54 72zM475.4 294.5C482 299.6 486.4 307 487.6 315.3L511.6 475.3C513 484.5 510.3 493.8 504.2 500.9C498.2 507.9 489.3 512 480 512H384L287.1 352V512H96C86.68 512 77.83 507.9 71.75 500.9C65.67 493.8 62.97 484.5 64.35 475.3L88.35 315.3C89.59 307 93.98 299.6 100.6 294.5L268.6 166.5C280.1 157.8 295.9 157.8 307.4 166.5L475.4 294.5z"/>
</svg>
